icons/src/fluent/svg/weather_moon_24_regular.svg

<svg width="24" height="24" viewBox="0 0 24 24" fill="none" xmlns="http://www.w3.org/2000/svg">
<path d="M20.0258 17.0014C17.2639 21.7851 11.1471 23.4241 6.3634 20.6622C5.06068 19.9101 3.964 18.8926 3.12872 17.6797C2.84945 17.2741 3.0301 16.7141 3.49369 16.5482C7.26112 15.1997 9.27892 13.6372 10.4498 11.4021C11.6825 9.04908 12.001 6.47162 11.1387 2.93862C11.0195 2.45008 11.4053 1.98492 11.9075 2.01186C13.4645 2.09539 14.9856 2.54263 16.3649 3.33903C21.1486 6.10088 22.7876 12.2177 20.0258 17.0014ZM11.7785 12.0981C10.5272 14.4867 8.46706 16.1972 4.96104 17.597C5.5693 18.2929 6.29275 18.8894 7.1134 19.3632C11.1796 21.7108 16.3791 20.3176 18.7267 16.2514C21.0744 12.1852 19.6812 6.98571 15.6149 4.63807C14.7379 4.1317 13.7951 3.79168 12.8228 3.62253C13.4699 7.00652 13.0525 9.66622 11.7785 12.0981Z" fill="#212121"/>
</svg>

<svg width="24" height="24" fill="none" viewBox="0 0 24 24" xmlns="http://www.w3.org/2000/svg"><path d="M20.026 17.001c-2.762 4.784-8.879 6.423-13.663 3.661a9.964 9.964 0 0 1-3.234-2.983.75.75 0 0 1 .365-1.131c3.767-1.348 5.785-2.911 6.956-5.146 1.232-2.353 1.551-4.93.689-8.464a.75.75 0 0 1 .769-.926 9.961 9.961 0 0 1 4.457 1.327C21.149 6.1 22.788 12.217 20.025 17Zm-8.248-4.903c-1.25 2.388-3.31 4.099-6.817 5.499a8.492 8.492 0 0 0 2.152 1.766 8.501 8.501 0 1 0 8.502-14.725 8.485 8.485 0 0 0-2.792-1.016c.647 3.384.23 6.044-1.045 8.476Z" fill="#212121"/></svg>
